X: 6
T: The Wheels Of The World
R: reel
M: 4/4
L: 1/8
K: Dmix
dc |: AD (3DDD FAGF | EC (3CCC G,CEG | AD (3DDD FAde | =fedc Addc |
AD (3DDD FAGF|EC (3CCC EFGc|AddB cBAG| EDCD EDD2 :||
d3f afdf| eccB cege| d^cdf afdf | eaag eddA |
d3f afdf | eccB cege| abag efge | aege dcAB ||
c3e gecA | d2ad bdad | cBcd ed (3Bcd | eaag edAB |
c3e gecA | d2ad bdad | abag efge | aege d2 ||


Tune 1010	Setting 14227

